assets/images/buildings.svg

<svg xmlns="http://www.w3.org/2000/svg" id="Layer_1" version="1.1" viewBox="0 0 20 20"><defs><style>.st0{fill-rule:evenodd}</style></defs><path d="M1,3c0-1.105.895-2,2-2h6c1.105,0,2,.895,2,2v2h6c1.105,0,2,.895,2,2v10c0,1.105-.895,2-2,2h-9v-3c0-.552-.448-1-1-1h-2c-.552,0-1,.448-1,1v3h-1c-1.105,0-2-.895-2-2V3ZM3,4c0-.552.448-1,1-1s1,.448,1,1-.448,1-1,1-1-.448-1-1ZM3,8c0-.552.448-1,1-1s1,.448,1,1-.448,1-1,1-1-.448-1-1ZM4,11c-.552,0-1,.448-1,1s.448,1,1,1,1-.448,1-1-.448-1-1-1ZM7,4c0-.552.448-1,1-1s1,.448,1,1-.448,1-1,1-1-.448-1-1ZM8,7c-.552,0-1,.448-1,1s.448,1,1,1,1-.448,1-1-.448-1-1-1ZM7,12c0-.552.448-1,1-1s1,.448,1,1-.448,1-1,1-1-.448-1-1ZM12,7c-.552,0-1,.448-1,1s.448,1,1,1,1-.448,1-1-.448-1-1-1ZM15,8c0-.552.448-1,1-1s1,.448,1,1-.448,1-1,1-1-.448-1-1ZM16,11c-.552,0-1,.448-1,1s.448,1,1,1,1-.448,1-1-.448-1-1-1ZM15,16c0-.552.448-1,1-1s1,.448,1,1-.448,1-1,1-1-.448-1-1ZM12,11c-.552,0-1,.448-1,1s.448,1,1,1,1-.448,1-1-.448-1-1-1ZM11,16c0-.552.448-1,1-1s1,.448,1,1-.448,1-1,1-1-.448-1-1Z" class="st0"/></svg>

<svg xmlns="http://www.w3.org/2000/svg" id="Layer_1" viewBox="0 0 20 20"><defs><style>.st0{fill-rule:evenodd}</style></defs><path d="M1 3a2 2 0 0 1 2-2h6a2 2 0 0 1 2 2v2h6a2 2 0 0 1 2 2v10a2 2 0 0 1-2 2H8v-3a1 1 0 0 0-1-1H5a1 1 0 0 0-1 1v3H3a2 2 0 0 1-2-2zm2 1a1 1 0 1 1 2 0 1 1 0 0 1-2 0m0 4a1 1 0 1 1 2 0 1 1 0 0 1-2 0m1 3a1 1 0 1 0 0 2 1 1 0 0 0 0-2m3-7a1 1 0 1 1 2 0 1 1 0 0 1-2 0m1 3a1 1 0 1 0 0 2 1 1 0 0 0 0-2m-1 5a1 1 0 1 1 2 0 1 1 0 0 1-2 0m5-5a1 1 0 1 0 0 2 1 1 0 0 0 0-2m3 1a1 1 0 1 1 2 0 1 1 0 0 1-2 0m1 3a1 1 0 1 0 0 2 1 1 0 0 0 0-2m-1 5a1 1 0 1 1 2 0 1 1 0 0 1-2 0m-3-5a1 1 0 1 0 0 2 1 1 0 0 0 0-2m-1 5a1 1 0 1 1 2 0 1 1 0 0 1-2 0" class="st0"/></svg>
